build/images/SVG/new/bold-crying-selected.svg

<svg xmlns="http://www.w3.org/2000/svg" width="31.992" height="31.992" viewBox="0 0 31.992 31.992"><title>crying</title><path fill="#010101" d="M15.996 0C7.176 0 0 7.176 0 15.996s7.176 15.996 15.996 15.996 15.996-7.176 15.996-15.996S24.816 0 15.996 0zm6.019 10.644c1.177 0 2.132.787 2.132 1.759 0 .971-.955.933-2.132.933s-2.132.038-2.132-.933c0-.972.955-1.759 2.132-1.759zm-12.036 0c1.177 0 2.132.787 2.132 1.759 0 .971-.955.933-2.132.933s-2.132.038-2.132-.933c.001-.972.956-1.759 2.132-1.759zm-1.342 4.523s2.403 3.275 0 3.275c-2.402-.001 0-3.275 0-3.275zm14.126 8.446c-.027-.025-2.809-2.637-6.624-2.637-3.87 0-6.949 2.643-6.98 2.67l-1.313-1.509c.147-.129 3.683-3.161 8.293-3.161 4.641 0 7.875 3.064 8.01 3.195l-1.386 1.442z"/></svg>

<?xml version="1.0" encoding="utf-8"?>
<!-- Generator: Adobe Illustrator 16.0.0, SVG Export Plug-In . SVG Version: 6.00 Build 0)  -->
<!DOCTYPE svg PUBLIC "-//W3C//DTD SVG 1.1//EN" "http://www.w3.org/Graphics/SVG/1.1/DTD/svg11.dtd">
<svg version="1.1" id="Layer_1" xmlns="http://www.w3.org/2000/svg" xmlns:xlink="http://www.w3.org/1999/xlink" x="0px" y="0px"
	 width="31.992px" height="31.992px" viewBox="0 0 31.992 31.992" enable-background="new 0 0 31.992 31.992" xml:space="preserve">
<title>crying</title>
<path fill="#010101" d="M15.996,0C7.176,0,0,7.176,0,15.996s7.176,15.996,15.996,15.996s15.996-7.176,15.996-15.996
	S24.816,0,15.996,0z M22.015,10.644c1.177,0,2.132,0.787,2.132,1.759c0,0.971-0.955,0.933-2.132,0.933s-2.132,0.038-2.132-0.933
	C19.883,11.431,20.838,10.644,22.015,10.644z M9.979,10.644c1.177,0,2.132,0.787,2.132,1.759c0,0.971-0.955,0.933-2.132,0.933
	s-2.132,0.038-2.132-0.933C7.848,11.431,8.803,10.644,9.979,10.644z M8.637,15.167c0,0,2.403,3.275,0,3.275
	C6.235,18.441,8.637,15.167,8.637,15.167z M22.763,23.613c-0.027-0.025-2.809-2.637-6.624-2.637c-3.87,0-6.949,2.643-6.98,2.67
	l-1.313-1.509c0.147-0.129,3.683-3.161,8.293-3.161c4.641,0,7.875,3.064,8.01,3.195L22.763,23.613z"/>
</svg>
